X:179
T:Killarney Boys of Pleasure
Z: id:dc-reel-386
M:C
L:1/8
K:E Dorian
D|E2ED E2FA|BFAF DEFA|B2Bd e2ed|BdAF DEFD|!
E2ED E2FA|BFAF DEFA|B2Bd e2ed|BdAF FEE:|!
A|Bee2 Bee2|BdAF DEFA|f2fe f2fe|dBAF DEFA|!
Bee2 Bee2|BdAF DEFA|f2fe defe|dBAF FEE:|!


